icons/bolt-off.svg

<svg width="24" height="24" viewBox="0 0 24 24" fill="none" xmlns="http://www.w3.org/2000/svg">
<g clip-path="url(#clip0)">
<path fill-rule="evenodd" clip-rule="evenodd" d="M0.292893 0.292893C0.683417 -0.0976311 1.31658 -0.0976311 1.70711 0.292893L23.7071 22.2929C24.0976 22.6834 24.0976 23.3166 23.7071 23.7071C23.3166 24.0976 22.6834 24.0976 22.2929 23.7071L15.669 17.0832L12.3127 22.525C12.0779 22.9056 11.6189 23.0841 11.1887 22.9621C10.7585 22.84 10.4615 22.4472 10.4615 22V15.2222H5C4.64939 15.2222 4.32438 15.0386 4.14344 14.7383C3.96251 14.438 3.95207 14.0648 4.11594 13.7548L6.96035 8.37456L0.292893 1.70711C-0.0976311 1.31658 -0.0976311 0.683417 0.292893 0.292893ZM8.44025 9.85447L6.65982 13.2222H11.4615C11.626 13.2222 11.7812 13.2619 11.9181 13.3323L8.44025 9.85447ZM12.3515 13.7657C12.4218 13.9026 12.4615 14.0578 12.4615 14.2222V18.4738L14.2156 15.6298L12.3515 13.7657ZM11.7023 1.02942C12.1483 1.14006 12.4615 1.54045 12.4615 2V6.46154C12.4615 7.01382 12.0138 7.46154 11.4615 7.46154C10.9093 7.46154 10.4615 7.01382 10.4615 6.46154V5.75854C10.1676 5.94819 9.78249 5.97778 9.4512 5.80263C8.96294 5.54451 8.77639 4.93945 9.03451 4.4512L10.5775 1.53262C10.7923 1.12636 11.2563 0.918773 11.7023 1.02942ZM13.7778 9.77778C13.7778 9.22549 14.2255 8.77778 14.7778 8.77778H19C19.3625 8.77778 19.6966 8.97392 19.8732 9.29042C20.0499 9.60692 20.0414 9.99424 19.8511 10.3027L18.2404 12.9142C17.9505 13.3843 17.3344 13.5303 16.8643 13.2404C16.3942 12.9505 16.2482 12.3344 16.5381 11.8643L17.2083 10.7778H14.7778C14.2255 10.7778 13.7778 10.3301 13.7778 9.77778Z" fill="black"/>
</g>
<defs>
<clipPath id="clip0">
<rect width="24" height="24" fill="white"/>
</clipPath>
</defs>
</svg>

<svg
  width="24"
  height="24"
  viewBox="0 0 24 24"
  xmlns="http://www.w3.org/2000/svg"
>
  <g clip-path="url(#a)">
    <path
      fill-rule="evenodd"
      clip-rule="evenodd"
      d="M.293.293a1 1 0 0 1 1.414 0l22 22a1 1 0 0 1-1.414 1.414l-6.624-6.624-3.356 5.442A1 1 0 0 1 10.46 22v-6.778H5a1 1 0 0 1-.884-1.467l2.844-5.38L.293 1.707a1 1 0 0 1 0-1.414zM8.44 9.854l-1.78 3.368h4.801c.165 0 .32.04.457.11L8.44 9.854zm3.912 3.912c.07.137.11.292.11.456v4.252l1.754-2.844-1.864-1.864zm-.65-12.737a1 1 0 0 1 .76.971v4.462a1 1 0 1 1-2 0v-.703A1 1 0 0 1 9.034 4.45l1.543-2.918a1 1 0 0 1 1.124-.504zm2.076 8.749a1 1 0 0 1 1-1H19a1 1 0 0 1 .851 1.525l-1.61 2.611a1 1 0 1 1-1.703-1.05l.67-1.086h-2.43a1 1 0 0 1-1-1z"
    />
  </g>
  <defs>
    <clipPath id="a">
      <rect width="24" height="24" />
    </clipPath>
  </defs>
</svg>
